X:1
T:Prelude and Fugue in D Major
T:BWV 532
T:J. S. Bach
T:Arranged for piano by Eugen d' Albert
%%score { ( 1 2 5 ) | ( 3 4 6 ) }
L:1/8
Q:1/4=72
M:4/4
K:D
V:1 treble nm="Piano"
V:2 treble 
V:5 treble 
V:3 bass 
V:4 bass 
V:6 bass 
V:1
"^Maestoso" z4 z [df][Adf][FAdf] | [FAdf] z z2 z/ D/E/F/ G/A/B/c/ | %2
 [Dd] z z2 z[K:bass] [DF][A,DF][F,A,DF] | [F,A,DF] z z2[K:treble] z [df][Adf][FAdf] | %4
 [FAdf]2 z2 z/ e/f/^g/ a/d/c/B/ | c[Q:1/4=78]"^poco accel."d/B/ c/B/A/^G/ A/E/F/G/ A/D/C/B,/ | %6
 CD/B,/ C/E/F/^G/ A/D/C/B,/ C/E/F/G/ | %7
 A/^G/A/B/ c/B/A/G/[Q:1/4=72]"^molto riten." A/E/F/D/[Q:1/4=60] E/A/D/G/ | %8
[Q:1/4=48] [CEA]2[Q:1/4=72] z2 z4 |[Q:1/4=68]"^Poco adagio" z3/2 e/ ^A>c E>=G ^A,>E | %10
 z3/2 b/ d>f B>d ^G>B | z3/2 d/ B>d!pp! ^G/4B/4G/4B/4G/4B/4G/4B/4 G/4B/4G/4B/4G/4B/4G/4B/4 | %12
 ^G/4B/4"_cresc."G/4B/4G/4B/4G/4B/4 G/4B/4G/4B/4G/4B/4G/4B/4 G/4B/4G/4B/4G/4B/4G/4B/4 G/4B/4G/4B/4G/4B/4G/4B/4 | %13
 ^G/4B/4G/4B/4 G/B/ [CF^A]>[B,^EG] [CFA]>[B,DG] [^A,CF]>[^G,B,E] | %14
 [^A,CF] z z2[Q:1/4=72]"^Più mosso" x2 x !>!B/4c/4d/4e/4 | %15
[Q:1/4=48]!ff! !fermata![FAdf]4[Q:1/4=132]"^Alla Breve (Allegro)" z2 A2 | B4 A3 d | efga f4 | %18
 B3 c dfed | cA z A BdGB | AcFA GBEG | FD z A dfBd | cA d4 [Gc]2 | c2 F2 G2 [E^A]2 | B2 z d egce | %25
 dB f4 ^e2 |!mf! f2 f2 =e4 | d4 c4 | B4 A4 | G4 F4 | E4 D2!p! f2 | e4 d4 | c4 B2 !>!=a2- | %33
!<(! a2 ^g4 f2- | f2 ^e2 f2!<)!!mf! !>!d2- | d2 c4 B2 | B2 ^A2 B.d!p!Ac | Bd^Ac B.d!f!Ac | %38
 Bd^Ac B.d!p!Ac | Bd^Ac!<(! B=A/B/!<)!!f! c2 | c2 c2 c2!p! c2 | c2 c2 c2 c2 | c2 c2 c2 c2 | %43
 c2 d2 ^G2 z c |!mf! !>![Ad]2 [^Gc]2 !>![Ad]2 [Gc]2 | [Ad]2!>(! [^Gc]2 [FB]2 [EA]2 | %46
 [D^G]2 G2 F2!>)!!p! z A |!<(! ^GBGB A!<)!!mp!c!>(!FA | =GB!>)!!p!EG FD A2- | A2 G4 F2 | %50
 E2 z A FA!pp!EA | FAE.A!mf! FAEA | FAEA F.d!p!Ad | BdAd B.d!mf!Ad | BdAd B.e!p!Be | %55
 ceBe c.e!f!Be | ceBe c.a!p!ea | faea f.a!f!ea | faea f.d!p! f2 | e4 d4 | c4 B4 | %61
 A2!f! .[Aa]2 .[Aa]2!p! A2 | A2!f! .[Aa]2 .[Aa]2!p! A2 | A2 A4 ^G2 | A2!f! c2 B4 | A4 =G4 | %66
 F4[K:bass] E4- | E2 D4 C2 | [F,D][G,E][K:treble] d4 =c2 | =c2 B2 A4 | GD G6- | G8- | GE A6- | %73
 A8- | AA d6- | d8- | dd g6- | g6- g=f | eg=ce =fgef | ^d^f B2 =c=d!mp!!>(!Bd!>)! | %80
!p! =cd [^DFB]2 [EA]2 [B,=DG]2 |!<(! [=C^DF]2 G2 F4!<)! |!mf!!<(! E2!<)! z!f! [Be] ^cdBd | %83
 cdBd cdBd | cAdA Bd=GB | BcFA GBEG | FA z f egfa | gafe f2 e[Dd] | dA!f! f2 e4 | d4 c4 | B4 A4 | %91
 G6 F2 | E4 z D2 D | z D2 C D d2 d | z d2 c z d2 [Dd] | %95
 z [Dd]2[Q:1/4=66] !fermata![Cc][Q:1/4=72]"^Adagio"!ff! !>![=C=c]2 [B,B][A,A] | %96
 [G,B,G]2!mf!!<(! E/4F/4G/4A/4B/4=c/4d/4e/4!<)!!ff! !^![=F=f]2 [Ee][Dd] | %97
 =c4[Q:1/4=48]"^ten." [D=F_B][Q:1/4=72] z/4!mf! F/4G/4A/4!<(! B/4c/4d/4_e/4=f/4g/4a/4_b/4!<)! | %98
!ff! ^G2 A4 GF | ^G6 G>G | [=CEA]8- | [CA][E=c][DB][=CA] ^G3 G | E4 =F4 | %103
 [_B,D_B]2 z/!f! g/_b/g/ _e/=f/g/d/ e/B/G/_E/ | z ^c d4 [Ac]2 | !>![Dd]2!>(! z2 C3 C!>)! | %106
!p![Q:1/4=48] !fermata![A,D]8[Q:1/4=30] ||[Q:1/4=120]"^Vivace"!f! z8 | z8 | z8 | z8 | z8 | z8 | %113
 A/B/c/B/ A/B/c/B/ A z z2 | z2 !>!f/e/f/c/ d/c/d/B/ e/d/e/B/ | %115
 c/B/c/A/ d/c/d/A/ B/A/B/^G/ c/B/c/G/ | A/^G/A/F/ B/A/B/F/ G/F/G/E/ A2- | %117
 A/B/A/B/ P^G>A A/c/A/E/ z2 | !>!d/f/d/A/ z2 !>!=G/B/G/D/ z2 | z/ E/A/E/ FF G/A/F/G/ E>D | %120
!f! d/e/f/e/ d/e/f/e/ d/e/f/e/ d/e/f/e/ | d z z2 z2 !>!b/a/b/f/ | %122
 g/f/g/e/ a/g/a/e/ f/e/f/d/ g/f/g/d/ | e/d/e/c/ f/e/f/c/ d/c/d/B/ e/d/e/B/ | %124
 c/B/c/A/ d2- d/e/d/e/ Pc>d | d/f/d/A/ z2 ^g/b/g/e/ a2- | a2 z [d^g]!f! [Aca]2 z2 | %127
 z4 z A/^G/ A/G/A/G/ | .A.A, z .[Aca] !>![Bfa]2 z .[^GB^g] | %129
 !>![Ae^g]2 z .[FAf] !>![^Gdf]2 z .[EGe] | !>![Fce]2 z .[DFd] !>![EBd]2 c2 | B2 B2- B/E/^G/E/ A2- | %132
 A/B/A/B/ ^G/A/F/G/ A/B/c/B/ [CA]/[DB]/[Ec]/[DB]/ | %133
 [CA]/[DB]/[Ec]/[DB]/ [CA]/[DB]/[Ec]/[DB]/!f! !>!A/c/A/E/ z2 | %134
!p! z/ A/d/A/ B/d/g/B/ c/e/a/c/ d/f/b/d/ | e/a/!<(!g/a/ f/e/f/d/ g/f/g/a/ Pe>!f!d!<)! | %136
 d2 z e fgaA | d z z2 z2 z .f | e2 z e d2 z d | c2 z c B2 z B | A2 z/ A/d/A/ Bg f>e | %141
 d/e/f/e/ d/f/e/d/ [Ac]/[Bd]/[ce]/[Bd]/ [Ac]/[ce]/[Bd]/[Ac]/ | Be d/c/d/B/ c/B/A/B/ ^G>A | %143
!f! [A,CA]/[B,E]/[CA]/[B,E]/ [A,C]/ [B,E]/[CA]/[B,E]/ [A,C]/ [B,E]/[CA]/[B,E]/ [A,C]/ [B,E]/[CA]/[B,E]/ | %144
 z [ca]/[B^g]/ [ca]/[Bg]/[ca]/[Bg]/ [ca].A!p! z .[Ac] | [AB]2 z .[^GB] [GA]2 z .[FA] | %146
 [F^G]2 z .[EG] [EF]2 z .[DF] | E2- E/A/E/C/ D2- D/E/D/E/ | C/E/C/A,/ z2 x4 | %149
 z/ A,/D/A,/!p!"^poco cresc."!<(! B,2 z/ B,/E/B,/ C2 | z/ C/F/C/ D/B,/B/D/ E/A,/A/B/ A/B/A/G/ | %151
 F/A/d/A/ B/d/g/B/ cd- d>c!<)! |!f! d2 z2 z4 | f/A/d/A/ f/A/d/A/ f/A/d/A/ f.[FBdf] | %154
 [EBde]2 z .[EAce] [DAcd]2 z .[DGBd] | [CGBc]2 z .[CFAc] [B,FAB]2 z .[B,EGB] | %156
 A2- A/dd/ e2- e/ee/- | e/ee/ z/ dd/ z/ d!>(!d/ z/ cc/- | c/cc/ z/ BB/ z/ BB/ z/ ^AA/!>)! | %159
!pp! [DFB]2 z2 z4 | [B,D]/F/B/F/ [B,D]/F/B/F/ [B,D]/F/B/F/ [B,D]/F/B/F/ | %161
 z b/^a/ b/a/b/a/ .b.B z .[DB] |!pp! [CB]2 z .[C=A] [B,A]2 z .[B,G] | %163
 [A,G]2 z .[A,F] [^G,F]2 z .[G,E] | [F,E]2!p! =g/f/g/d/ e/d/e/c/ f/e/f/c/ | %165
 d/c/d/B/ d.[Bd] [Bc]2 z .[^Ac] | B/b/^a/b/ x2 x4 | d/b/^a/b/ d2- d/b/a/b/ d2- | %168
 d/b/^a/b/ ^e2 z/ c/f/c/ d2 | z/ ^G/c/G/ A2 z/ d/=g/f/!<(! ^e/c/f/c/ | %170
 d/f/^e/f/!<)!!f! A/f/^G/^e/ f z z2 | F/^G/A/G/ F/G/A/G/ F2 z2 | %172
 z2!mf! d/c/d/A/ B/A/B/^G/ c/B/c/G/ | A/^G/A/F/ B/A/B/F/ ^G/F/G/E/ A/G/A/E/ | %174
 F/E/F/^D/ G/F/G/D/ ^E/D/E/C/ Fc | =d/^E/F/^G/ E>F [A,F]!f! f/^e/ f/e/f/e/ | f z z2 z ccc | %177
 c2 z2 z A/^G/ A/G/A/G/ | [CA]2 z .[Afa] [^Gf^g]2 z .[Geg] | [Fef]2 z .[Fdf] [Ede]2 z .[Ece] | %180
 [^Dc^d]2 z .[DBd] ^g!>!c- c/=d/c/d/ | B2- B/c/B/c/ A2- A/B/A/B/ | %182
 ^G/A/F/G/ F/G/F/^E/ !>!F/A/F/C/ z2 | !>!f/a/f/c/ z2 z4 | z4 z !>!f/e/!>(! f/e/f/e/ | %185
 ^d z z2!>)!!mf! e/f/^g/f/ e/f/g/f/ |!f! e z z2 z4 | z c/^B/ c/B/c/B/ .c.C z [CEc] | %188
 [^DAc]2 z .[D^G^B] c/^d/e/c/!>(! !>!a/^g/a/e/ | f/e/f/^d/ ^g/f/g/d/ e/d/e/c/ f/e/!>)!!p!=d/c/ | %190
 ^B/^d/c/d/ B>c c/e/c/=G/ z2 | E/^G/E/C/ z2 C/E/C/^G,/ z2 | %192
 z/ ^A/E/A/ ^D/B/C/c/ F/^d/^G/c/ A/c/A/F/ | B z ^G/B/G/E/ =A/E/B/E/ c/G/F/E/ | %194
 ^D/C/B, z/ B,/E/B,/ C/E/A/C/ D/F/B/D/ | E/!<(!^G/c/E/ F/B/A/B/ G/B/e/G/ PF>E!<)! |!f! E z z2 z4 | %197
 e/f/^g/f/ e/f/g/f/ e/f/g/f/ e/f/g/f/ | e ^G/F/ G/F/G/F/ G2 c/B/c/G/ | %199
 A/^G/A/F/ B/A/B/F/ G/F/G/E/!>(! e.[Ge] | [Fe]2 z .[F^d] [Ee]2 z .[Fe]!>)! | %201
!mp! [F=d]2!<(! z [Ed] c2- c/B/c/A/ | %202
 B/e/a/A/ A>^G!<)!!f! [CA]/[DB]/[Ec]/[DB]/ [CA]/[DB]/[Ec]/[DB]/ | %203
 [CA]/[DB]/[Ec]/[DB]/ [CA]/[DB]/[Ec]/[DB]/ [CA]2 z2 | z2!p! f/e/f/c/ d/c/d/B/ e/d/e/B/ | %205
 c/B/c/A/ d/c/d/A/ B/A/B/^G/ c/B/c/G/ | A/^G/A/F/ B/A/B/F/ G/F/G/E/ !>!A2- | %207
 A/^G/A/F/!<(! !>!B2- B/A/B/G/ !>!c2- | c/B/c/A/ d/c/d/c/ d/c/B/d/ cB/A/!<)! |!f! [CA] z z2 z4 | %210
 e/f/=g/f/ e/f/g/f/ e/f/g/f/ e/f/g/f/ | e2 z2 z4 | c/d/e/d/ c/d/e/d/ c/d/e/d/ c/d/e/d/ | %213
 [EAc]/[DB]/[Ec]/[CA]/ [Fd]/[Ge]/[Af]/[Ge]/ [Fd]/[Ec]/[Fd]/[DB]/!f! [Ge]/[Af]/[Bg]/[Af]/ | %214
 [Ge]/[Fd]/[Ge]/[Ec]/ [Fd]/[Ge]/[Af]/[Ge]/ [Fd]/[Ec]/[Fd]/[DB]/ [Ge]/[Af]/[Bg]/[Af]/ | %215
 [Ge]/[Fd]/[Ge]/[Ec]/ [Fdf]/[Geg]/[Afa]/[Geg]/ [Fdf]/[Ece]/[Fdf]/[DBd]/ [Geg]/[Afa]/[Bgb]/[Afa]/ | %216
 [Geg]/[Fdf]/[Geg]/[Ece]/ [Fdf]/[Geg]/[Afa]/[Geg]/ [Fdf]/[Ece]/[Fdf]/[DBd]/ [Geg]/[Afa]/[Bgb]/[Afa]/ | %217
 [Geg]/[Fdf]/[Geg]/[Ece]/ [Fdf]/[Ee]/[Fd]/[Ge]/ [EAc]2 z/ [Ec]/[Fd]/[Ec]/ | %218
 [FAd]2 z/ [Fd]/[=Ge]/[Fd]/ [GAe]2 z/ [Ec]/[Fd]/[Ec]/ | %219
 [FAd]2 z/ [Fd]/[=Ge]/[Fd]/ [GAe]2 z/ [Ec]/[Fd]/[Ec]/ | %220
 [FAd]2 z/ [DB]/[Ec]/[DB]/ [EAc]/[Fd]/[=Ge]/[Fd]/ [Ec]/[Fd]/[Ge]/[Fd]/ | %221
 [Ec]/[Fd]/[Ge]/[Fd]/ [Ec]/[Fd]/[Ge]/[Fd]/ [Ec]/[Fd]/[Ge]/[Fd]/ [Ec]/[Fd]/[Ge]/[Fd]/ | %222
 [Ec]/[Fd]/[Ge]/[Fd]/ [Ec]/[Fd]/[Ge]/[Fd]/!ff! [Fd]/[Ge]/[Af]/[Ge]/ [Fd]/[Ge]/[Af]/[Ge]/ | %223
 !>!d/f/d/A/ z2 !>!A/d/A/F/ z2 | !>!F/A/F/D/ z2 !>!D/F/D/A,/ z2 | z8 | %226
 z [Adfa]/x/[Adfa]/x/[Adfa]/ x/ [Adfa] z z .[dfbd'f'] | %227
 !>![degbd'e']2 z .[ceac'e'] !>![cfac'd']2 z .[Bdgbd'] | %228
 !>![Begbc']2 z .[Acfac'] !>![ABdfab]2 z .[GBegb] | %229
 [GA-cega-]2 [Aa]/[Bb]/[Aa]/[Bb]/ !>![G-Beg-]2 [Ae]2 | [FAdf]2 z .[df] !>![Be]2 z .[ce] | %231
 !>![Ad]2 z .[Bd] !>![Gc]2 z .[Ac] | !>![FB]2 z .[GB] [EA-]2 A/A,/D/A,/ | F/D/A/F/ d/A/f/d/ a2 z2 | %234
 z/ !>!a/f/d/ A/d/A/F/ D/ !>!d/A/F/ D/A/F/D/ | A,/ z/ z z2 z/ d/A/F/ D/A/F/D/ | %236
 A, z z2 z/ A/F/D/[K:bass]"_dim." A,/D/A,/F,/ | D, z z2 z/ F,/D,/F,/ A,,/D,/F,,/A,,/ | %238
!pp! [D,,D,]/[E,,E,]/[F,,F,]/[E,,E,]/ [D,,D,]/[E,,E,]/[D,,D,]/[G,,G,]/ [F,,F,]/[G,,G,]/[A,,A,]/[G,,G,]/ [F,,F,]/[A,,A,]/[G,,G,]/[B,,B,]/ | %239
 [A,,A,]/[B,,B,]/"_cresc."[C,C]/[B,,B,]/ [A,,A,]/[C,C]/[B,,B,]/[D,D]/ [C,C]/[D,D]/[E,E]/[D,D]/ [C,C]/[E,E]/[D,D]/[F,F]/ | %240
[K:treble] E/F/G/F/ E/G/F/A/ [G,G]/[A,A]/[B,B]/[A,A]/ [G,G]/[B,B]/[A,A]/[G,G]/ | %241
!ff! [Dd]/[Cc]/[Dd]/[Cc]/ [Dd]/[Cc]/[Dd]/[Cc]/ [dfd']/[ege']/[faf']/[ege']/ [dfd']/[ege']/[faf']/[ege']/ | %242
 [dfd'] z z2 [Fd]/[Ec]/d/c/ d/c/d/c/ | %243
 [Ad] z [dfd']/[ege']/[faf']/[ege']/ [dfd'][K:bass]"^riten."[Q:1/4=60] .D[Q:1/4=30] !fermata!D,2 |] %244
V:2
 x4 z/ A/z/F/z/D/z/[I:staff +1]A,/ | D/[I:staff -1] x/ x x2 x4 | x5[K:bass] x3 | %3
 x4[K:treble] z/ A/z/F/z/D/z/[I:staff +1]A,/ |[I:staff -1] x4 x/ c/d/B/ c/B/A/^G/ | %5
 A/E/F/^G/ A/D/C/B,/ CD/B,/ C/[I:staff +1]B,/A,/^G,/ | x8 | x8 | x8 | x8 | %10
[I:staff -1] D4- D>C B,>A, | ^E8- | E4- E/^E/E/E/ E/E/E/E/ | [F,^E]>[D^G] x2 x4 | x8 | x6 F2- | %16
 FF E4 F2 | G2 A3 cBA | ^GE A4 G2 | A2 x2 =G2 E2- | E2 D4 C2 | D2 E2 F2 E2 | E2 [FA]2 E4 | D4 C4 | %24
 [DF]2 F2 G2 F2 | F2 =A2 ^G4 | A2 A2 B2 =G2 | A2 F2 G2 E2 | F2 D2 E2 C2 | D2 E4 D2- | %30
 D2 C2 x2 d2- | d2 c4 B2- | B2 ^A2 B2 c2 | B4 A4 | ^G4 F2 z F | =GBEG FADF | EGCE D2 C2 | %37
 D2 E2 F2 [CE]2 | [DF]2 [CE]2 F2 E2 | D2 E2 F3 ^E | FA^E^G F.AEG | FA^E^G F.AEG | FA^E^G FAEG | %43
 FA^GF ^EC G2 | x8 | x8 | x2 CB, A,B, x2 | x8 | x6 z C | DFB,D!p!!>(! CA, D2- | DD C2 D2!>)! C2 | %51
 A,2 A,2 A,2 [A,C]2 | [A,D]2 [A,E]2 [A,D]2 .F2 | .D2 .D2 .D2 [DF]2 | [DG]2 D2 [DG]2 ^G2 | %55
 E2 E2 E2 [E^G]2 | [EA]2 [EB]2 [EA]2 c2 | A2 A2 A2 [Ac]2 | [Ad]2 A2 A2 d2- | d2 c4 B2- | %60
 B2 A4 ^G2 | A2 x2 x4 | x8 | x2 [CE]2 [B,F]2 B,2 | CA, z C DFB,D | CEA,C B,DG,B, | %66
 A,CF,A,[K:bass] G,B,E,G, | F,A,D,F, E,G,E,G, | x2[K:treble] F2 E4 | D4 E2 D=C | B,2 z!p! D E=FDF | %71
 E=FD!f!F EFDF | E2 z E ^FGEG | FGE!f!G FGEG | F2 z!p! A"_cresc." B=cAc | B=cAc BcAc | %76
 [GB]2 z d e=fdf | e=fBf!f! ef [Gd]2 | [G=c]2 z [Gc] A2 G2 | [^FB]2 z!p!!<(! F G2!<)! F2 | %80
 G2 x2 x4 | x2 B,2 =C2 B,A, | [^G,B,]B, E6- | E8- | E2 !>!F4 !>!E2- | E2 !>!D4 C2 | D2 x2 x4 | x8 | %88
 D2 z A GBEG | FADF EGCE | DFB,D CEA,C | B,DG,B,[I:staff +1] A,CF,A, | x8 | %93
[I:staff -1] x6"_cresc." F2 | E2 E2 D2!ff! [FA]2 | [EB]2 !fermata![EA]2 F4 | x4 B4- | %97
 B2 [=CA][E=G] x4 | E6 [B,^D]2- | D2 EF E2 B,2 | x8 | E4 B,4 | =G2 AG A,2 x2 | x8 | %104
 x [=FA][EG][DF] E4 | _B2- B/A/G/A/4B/4 _B,2 A,2 | x8 || D/E/F/E/ D/E/F/E/ D/E/F/E/ D/E/F/E/ | %108
 D z z2 z2 B/A/B/F/ | G/F/G/E/ A/G/A/E/ F/E/F/D/ G/F/G/D/ | E/D/E/C/ F/E/F/C/ D/C/D/B,/ E/D/E/B,/ | %111
[I:staff +1] C/B,/C/A,/[I:staff -1] D2- D/E/D/E/ PC>D | D/F/E/A,/ x2 A/B/c/B/ A/B/c/B/ | x8 | x8 | %115
 x8 | x8 | x8 | x8 | x8 | x8 | x8 | x8 | x8 | x8 | z2 E/A/F/D/ D2 z/ e/c/A/ | x8 | x4 x EEE | %128
 E2 x2 x4 | x8 | x6 z/ C/F/C/ | D2 z/ B,/E/B,/ C2 z [CE] | FD x D E x x2 | x4 C2 x2 | x8 | x8 | %136
 D/E/F/E/ D/E/F/E/ D/E/F/E/ D/E/F/E/ | D x x2 x2 !>!B/A/B/F/ | %138
 G/F/G/E/ A/G/A/E/ F/E/F/D/ G/F/G/D/ | E/D/E/C/ F/E/F/C/ D/C/D/B,/ E/D/E/B,/ | %140
 C/B,/C/A,/ D2 D/[I:staff +1]E/D/E/ C>D | D[I:staff -1]EF^G x4 | ^G/F/G/E/ FG AFB,D | x8 | x8 | %145
 x8 | x8 | D2 C2 B,4 | x8 | x8 | x8 | x2[I:staff +1] G,[I:staff -1]E- E/G/F/A/ E/F/G | %152
 [FA]2 x2 x4 | x8 | x8 | x8 | E2 DF G2 z G | FFFF EEEE | z DDD CCCC | x8 | x8 | x8 | x8 | x8 | x8 | %165
 x8 | B2 d2- d/b/^a/b/ d2- | x8 | x8 | x8 | x4 F/^G/A/G/ F/G/A/G/ | x8 | x8 | x8 | x8 | x8 | %176
 x x x2 x F/^E/ F/E/F/E/ | F2 x2 x CCC | x8 | x8 | x4 [^GB]2 A/B/A/B/ | ^G2 C2- C/=D/C/D/ B,2- | %182
 B,/C/A,/B,/ ^G,2 A,2 x2 | z2 A/c/A/F/ x4 | x8 | z ^G/F/ G/F/G/F/ E z z2 | x8 | x ^GGG G2 x2 | %188
 x4 [C^G]2 x2 | x6 z A | ^G3 F E2 x2 | x8 | x8 | x8 | x8 | x8 | x8 | x8 | x8 | x8 | x8 | x4 E2 x2 | %202
 x8 | x8 | x8 | x8 | x8 | F2- FF ^G2- GG | A3 A A3 ^G | z/ B,/C/B,/ x2 x4 | A z A z A z A z | %211
 [Ac]2 x2 x4 | x8 | x8 | x8 | x8 | x8 | x6 A2 | x2 A2 x2 A2 | x2 A2 x2 A2 | x2 G2 x4 | x8 | x8 | %223
 F2 x2 x4 | x8 | x8 | x x/ [CEAc]/x/[CEAc]/x/[CEAc]/ x4 | x8 | x8 | %229
 x2 !>![Fdf]2 x2 [Gg]/[Aa]/[Gg]/[Aa]/ | z/ F/G/A/ B/A/B/F/ G/F/G/E/ A/G/A/E/ | %231
 F/E/F/D/ G/F/G/D/ E/D/E/C/ F/E/F/C/ | D/C/D/B,/ E/D/E/B,/ C/B,/C/A,/ D2 | x8 | %234
 x/ !>!A/F/D/ x2 x4 | x8 | x6[K:bass] x2 | x8 | x8 | x8 |[K:treble] x8 | x8 | x4 AAAA | %243
 x5[K:bass] x3 |] %244
V:3
 z/!f! [D,,,D,,]/[E,,,E,,]/[F,,,F,,]/ [G,,,G,,]/[A,,,A,,]/[B,,,B,,]/[C,,C,]/!ped! [D,,D,] z z2!ped-up! | %1
 z/ [D,,,D,,]/[E,,,E,,]/[F,,,F,,]/ [G,,,G,,]/[A,,,A,,]/[B,,,B,,]/[C,,C,]/ [D,,D,]/ D,/E,/F,/ G,/A,/B,/C/ | %2
 z/ [A,,A,]/[D,D]/[F,,F,]/ [A,,A,]/[D,,D,]/[F,,F,]/[A,,,A,,]/!ped! z/ A,/z/F,/z/D,/z/A,,/!ped-up! | %3
 D,/ [D,,,D,,]/[E,,,E,,]/[F,,,F,,]/ [G,,,G,,]/[A,,,A,,]/[B,,,B,,]/[C,,C,]/!ped! [D,,D,] z z2!ped-up! | %4
 D/ F,/A,/D,/ F,/A,,/D,/F,,/!ff! A,,4- | A,,8- | %6
!ff! A,/E,/F,/^G,/ A,/D,/C,/B,,/ C,/E,/F,/G,/ A,/C,/D,/B,,/ | %7
 C,/E,/F,/^G,/ A,/D/C/B,/ CD/B,/ C/A,/B,/E,/ |!ped! A,2!ped-up! z2 z4 |!p! !>![F,,,F,,]8- | %10
 [F,,,F,,]8 |[I:staff -1] ^G,4!ped![I:staff +1] z3/2!p! D/ B,>D | %12
 ^G,>"_cresc."D B,>D ^E,/4C,/4E,/4C,/4E,/4C,/4E,/4C,/4 E,/4C,/4E,/4C,/4E,/4C,/4E,/4C,/4!ped-up! | %13
!f! x4 F,4- | %14
 F, z z2!f! !>!D,/4=E,/4F,/4G,/4"^cresc."!<(! !>!=A,/4B,/4C/4D/4[K:treble] !>!E/4F/4G/4A/4 x[K:bass]!<)! | %15
 !fermata![D,F,A,D]4 z2!p! D2 | D3 D C2 D2- | D2 C2 D2[K:treble] F2 | E3 E F2 D2 | %19
[K:bass] E2 D4 B,2 | C2 A,2 B,2 G,2 | A,2 A,4 ^G,2 | [A,,A,]2 z F, =G,B,E,G, | F,A,D,F, E,G,C,E, | %24
 D,B,, D2 C4 | B,2 C2 x4 | x2 D4 C2- | C2 B,4 A,2- | A,2 G,4 F,2- | F,2 E,2 A,4 | %30
 B,2 A,G, A,2 z[K:treble] F | GBEG FGDF | EGCE DB, z F |"^poco cresc." ^GB^EG FADF | %34
[K:bass] B,D^G,B, A,F, B,2 | E,2 A,2 D,2 G,2 | C,2 F,2 B,,2 .F,2 | .B,2 .C2 .D2 .[F,,,F,,]2 | %38
 .[B,,,B,,]2 .[C,,C,]2 .[D,,D,]2 .F,2 | .B,2 .C2 .D2 !arpeggio![C,,^G,]2 | %40
 !arpeggio![F,,A,]2 !arpeggio![^G,,B,]2 !arpeggio![A,,C]2 .C,2 | %41
 .F,2 .^G,2 .A,2!f! !arpeggio![C,,G,]2 | %42
 !arpeggio![F,,A,]2 !arpeggio![^G,,B,]2 !arpeggio![A,,C]2 !arpeggio![B,,D]2 | %43
 !arpeggio![A,,C]2 B,,2 C,2 z ^E, | F,A,^E,^G, F,A,E,G, | F,A,"^dim."=E,^G, D,F,C,F, | %46
 B,,F,C,^E, F,,2 C2 | B,2 C4 D2- | D2 C2 D2 x2 | B,,2 E,2"^dim." A,,2 z B,, | %50
 G,,2 A,,2 D,,2 .A,,2 | .D,2 .C,2 .D,2 .[A,,,A,,]2 | .[D,,D,]2 .[C,,C,]2 .[D,,D,]2 .D,2 | %53
 .G,2 .F,2 .G,2 .[D,,D,]2 | .[G,,G,]2 .[F,,F,]2 .[G,,G,]2 .E,2 | .A,2 .^G,2 .A,2 [E,,E,]2 | %56
 [A,,A,]2 [^G,,^G,]2 [A,,A,]2 .A,2 | .D2 .C2 .D2 [A,,A,]2 | [D,D]2 [C,C]2 [D,D]2[K:treble] z F | %59
 GBEG FADF | EGCE DFB,D | CEA,C DFB,D | CEA,C DFB,D | CA,[K:bass] z C, D,B,,E,E,, | %64
 A,,2 [A,,A,]4 [=G,,=G,]2- | [G,,G,]2 !>![F,,F,]4 [E,,E,]2- | [E,,E,]2 [D,,D,]4 [C,,C,]2 | %67
 [D,,D,]2 .[B,,,B,,]2 .[G,,,G,,]2 .[A,,,A,,]2 | .[D,,,D,,]2 A,2 x4 | A,2 G,4 F,2 | %70
 [G,,G,]2 z!p! G, =C2 B,2 | =C2 B,2 C2 G,2 | =C2 z!p! A, D2 ^C2 | D2 C2 D2 A,2 | %74
 D2 z[K:treble] D G2 F2 | G2 z[K:bass] D, [G,,G,]2 [F,,F,]2 | [G,,G,]2 z[K:treble] G =c2 B2 | %77
 =c2 z[K:bass] G, [=C,=C]2 [B,,B,]2 | [=C,=C]2 z [B,,B,] !>![A,,A,]4 | [B,,B,]2 z ^D E2 D2 | %80
 E2 z B,, =C,=D,B,,D, |"^cresc." A,,=C,G,,B,, A,,C,B,,,B,, | %82
 E,,2 z"^poco" [^G,,^G,] !>![A,,A,]2 [G,,G,]2 | [A,,A,]2 z2 z2 [E,,E,]2 | %84
 [A,,,A,,]2 z [F,,F,] !>![=G,,=G,]4 | [F,,F,]4 [E,,E,]4 | [D,,D,]2!mf!!ped! TD6!ped-up! | %87
!mf!!ped! TD6!ped-up! C z | x2 A,2 B,2 C2 | A,2 B,2 G,2 A,2 | F,2 G,2 E,2 F,2 | D,2 E,2 C,2 D,2- | %92
 G,B,E,G, F,2!f! [F,A,]2 | [E,B,]2 [E,A,]2 [D,F,]2 F,2 | G,2 A,2 B,2 !>![F,,,F,,]2 | %95
 [G,,,G,,]2"^sempre" !fermata![A,,,A,,]2!ped! !>!A,2 G,F,!ped-up! | %96
 [E,,E,]2 E,/4F,/4G,/4A,/4B,/4=C/4D/4E/4!ped! !^!D2 =CB,!ped-up! | %97
 ED [A,,,A,,]2!ped!{/D,,,D,,} [D,=F,_B,] z/4 F,/4G,/4A,/4[K:treble] A,/4=C/4D/4_E/4=F/4G/4A/4_B/4!ped-up! | %98
[K:bass] =B,2 A,4 x2 | F,2 E,^D, E,2 =F,2 | %100
!ped! E,2!ped-up!!ped! x2!ped-up!!ped! z =CB,A,!ped-up! | %101
!ped! ^G,2 A,2!ped-up!!ped! x2 [D,,D,]2!ped-up! | %102
[K:treble]!ped! _B2 x2!ped-up![K:bass]!ped! C2 [A,-D]2!ped-up! |!ped! A,G,/F,/ G,2!ped-up! z4 | %104
 x4 z _B,A,G, | ^F,D, G,2 G,3 G,- | G,2 F,E, !fermata!F,4 ||"^Fuge" z8 | z8 | z8 | z8 | z8 | %112
!ped! x2!ped-up!!ped! F,/A,/F,/D,/!ped-up! A, z z2 | z4 z A,/^G,/ A,/G,/A,/G,/ | %114
 .A,.A,, z[K:treble] .A !>!A2 z .^G | !>!^G2 z .F !>!F2 z .E | !>!E2 z .D !>!D2 z/ C/F/C/ | %117
[K:bass] DB, z/ B,/E/B,/ C z C/E/C/A,/ | F, z[K:treble] F/A/F/D/ B, z E/G/E/B,/ | %119
 CA,[K:bass] z/ A,/D/A,/ B,/C/ D2 C | D z z2 x4 | z D/C/ D/C/D/C/ .D.D, z .[DF] | %122
 !>![DE]2 z .[CE] !>![CD]2 z .[B,D] | !>![B,C]2 z .[A,C] !>![A,B,]2 z .[G,B,] | %124
 !>![G,A,]2 z/ A,/D/A,/ B,A, G,2 | F,2 z2 z2 z C | %126
 B,/!<(!F/"^cresc."D/B,/ E/B,/^G,/E,/!<)! z/ B,,/C,/B,,/ z/ B,,/C,/B,,/ | %127
 z/ B,,/C,/B,,/ z/ B,,/C,/B,,/ z C/B,/ C/B,/C/B,/ | C2!ff! z A, F,2 z ^G, | E,2 z F, D,2 z E, | %130
 C,2 z D, B,,2 A,2 | F,2 E,2 E,2 z/ A,,/C,/A,,/ | %132
 B,2 [E,B,]E,, C/[I:staff -1]D/E/D/[I:staff +1] z!ff! .[B,,,B,,] | %133
 .[C,,C,].[D,,D,].[E,,E,].[E,,,E,,] [A,,,A,,]2!>(! C/E/C/A,/!>)! | %134
 F,[I:staff -1]FGE AFB[I:staff +1]B, | C"^cresc."A,DC B,G,A,A,, | D, z z2 z4 | %137
 z!ff! F,/E,/ F,/E,/F,/E,/ F,2 z!f! .[D,D] | !>![D,D]2 z .[C,C] !>![C,C]2 z .[B,,B,] | %139
 !>![B,,B,]2 z .[A,,A,] !>![A,,A,]2 z .[G,,G,] | !>![G,,G,]2 [F,,F,] B,/F,/ G,E,A,A,, | %141
 D,2 z .[B,,B,] !>![C,C]2 z .D, | !>!E,2 B,,E, A,,D,E,E,, | A,,2 z2 z4 | .[A,C] z z2 z2 F/E/F/C/ | %145
 D/C/D/B,/ E/D/E/B,/ C/B,/C/A,/ D/C/D/A,/ | B,/A,/B,/^G,/ C/B,/C/G,/ A,/G,/A,/F,/ B,/A,/B,/F,/ | %147
 ^G,/F,/G,/E,/ A,2 A,/B,/A,/B,/ A,>A, |!ped! A,2 x2 A,/C/A,/E,/ z2!ped-up! | %149
!mp! .F,,2 z/ D,/G,/D,/ E,2 z/ E,/A,/E,/ | F,3 G,-"^sempre cresc." G,F,E,A, | A,2 x2 A,4 | %152
!ff! z/ E,/F,/E,/ D,/E,/F,/E,/ D,/E,/F,/E,/ D,/E,/F,/E,/ | z/ E/F/E/ D/E/F/E/ D/E/F/E/ DD | %154
 D2 z C C2 z B, | B,2 z A, A,2 z G, | G,2 F,A, B,2 A,2 | %157
 [D,A,]2 z [F,A,] [^G,B,]2"^dimin." z [^A,C] | [B,D]2 z [=G,B,] [E,G,]2 z F, | %159
 z/ C,/D,/C,/ B,,/C,/D,/C,/ B,,/C,/D,/C,/ B,,/C,/D,/C,/ | z/ C/D/C/ z/ C/D/C/ z/ C/D/C/ z/ C/D/C/ | %161
 [B,D]2 z [CE] [DF]2 G,/F,/G,/D,/ | E,/D,/E,/C,/ F,/E,/F,/C,/ D,/C,/D,/B,,/ E,/D,/E,/B,,/ | %163
 C,/B,,/C,/A,,/ D,/C,/D,/A,,/ B,,/A,,/B,,/^G,,/ C,/B,,/C,/G,,/ | %164
 ^A,,/^G,,/A,,/F,,/ G,, .[B,,D] [B,,C]2 z .[^A,,C] | %165
 [B,,B,]2[K:treble] G/F/G/D/ E/D/E/C/ F/E/F/C/ | D2 z/ B/^A/B/- B2- B/B/A/B/- | %167
 B2- B/B/^A/B/ B2- B/B/A/B/- | B2 z2 =A2 z/ F/B/^G/ | ^E2 z/ C/F/D/[K:bass] B,3"^cresc." A, | %170
 B,^G,CC, F,2 z!<(! ^G, | .A,.B,!<)!!ff!.C.C, F, [F,,F,]/x/[F,,F,]/x/[F,,F,]/ x/ | %172
 .[F,,F,] .[F,,,F,,] z .[F,,A,] [F,,^G,]2 z [=E,,G,] | %173
 [E,,F,]2 z !arpeggio![D,,F,] [D,,E,]2 z [C,,E,] | [C,,^D,]2 z [B,,D,] C,2- C,/F,/^E,/F,/ | %175
 z/ ^G,/A,/B,/ G,>A, F,,[K:treble] A/[I:staff -1]^G/[I:staff +1] A/[I:staff -1]G/[I:staff +1]A/[I:staff -1]G/ | %176
[I:staff +1] [CA][K:bass]!ff! [F,,F,]/x/[F,,F,]/x/[F,,F,]/ x/ [F,,F,] A,/^G,/ A,/G,/A,/G,/ | %177
 A, F,/^E,,/ F,/E,,/F,/E,,/ F, F,/^E,/ F,/E,/F,/E,/ | %178
 .F,.F,, D/C,/D/A,,/ B,/A,,/B,/^G,,/ C/B,,/C/G,,/ | %179
 A,/^G,,/A,/F,,/ B,/A,,/B,/F,,/ ^G,/F,,/G,/E,,/ A,/G,,/A,/E,,/ | %180
 F,/E,,/F,/^D,,/ ^G,/F,,/G,/D,,/ ^E,/D,,/E,/C,,/ [F,,F,]2- | %181
 [F,,F,]/^G,,/[F,,F,]/G,,/ [^E,,^E,]2 [F,,F,]2 [^D,,^D,]2 | %182
 [^E,,^E,][F,,F,][B,,,B,,][C,,C,] [F,,,F,,]2 A,/C/A,/F,/ | %183
 z4 x/ [^G,,^G,]/x/[G,,G,]/ x/ [G,,G,]/x/[G,,G,]/ | %184
 x/ [^G,,^G,]/x/[G,,G,]/ x/ [G,,G,]/x/[G,,G,]/ z !>!^D/C/"^dim." D/C/D/C/ | %185
 [^G,^B,] z z2 C/^D/E/D/ C/D/E/D/ | %186
 x/ [^D,,^D,]/x/[D,,D,]/ x/ [D,,D,]/x/[D,,D,]/ x/ [D,,D,]/x/[D,,D,]/ x/ [D,,D,]/x/[D,,D,]/ | %187
 .[C,,,C,,] E/^D/ E/D/E/D/ E2 !>!A,/^G,,/A,/E,,/ | %188
 F,/E,,/F,/^D,,/ ^G,/F,,/G,/D,,/ [E,,E,][C,,C,]"^dim." z[K:treble] [CEc] | %189
 [C^DA]2 z [^B,D^G] [CG]2 z[K:bass] [F,F] | %190
 [^G,F][C,E][G,^D]^G,,!ped! [C,C]2[K:treble] E/^G/E/C/!ped-up! | %191
!ped! z2[K:bass] ^G,/C/G,/E,/!ped-up!!ped! z2 E,/G,/E,/C,/!ped-up! | F,2 ^G,^A, B,EFE | %193
 ^D/F/D/B,/ ED C^G,=A,F, | B,>A, ^G,E, A,F,B,G, | C"^cresc."C,^D,B,, E,C,A,,B,, | %196
 x2 z/ [F,B,]/[^G,E]/[F,B,]/ z/ [F,B,]/[G,E]/[F,B,]/ z/ [F,B,]/[G,E]/[F,B,]/ | %197
 [E,^G,] z z F, G,A,B,B,, | E,!ff! E,/^D,,/ E,/D,,/E,/D,,/ E,.[E,,,E,,] z!f! .[E,^G,E] | %199
 [E,F,C]2 z .[^D,F,B,] [E,B,]2!>(! C/"^dimin."B,/C/^G,/ | %200
 A,/^G,/A,/F,/ B,/A,/B,/F,/ G,/F,/G,/E,/ A,/G,/A,/F,/!>)! | %201
!mp! B,/A,/B,/F,/"^cresc."!<(! ^G,/F,/G,/E,/ A,/G,/A,/E,/ D2- | %202
 DCB,D!<)!!f! [A,,A,]2 z .[B,,,B,,] | %203
!<(! .[C,,C,].[D,,D,]!<)!!ff!.[E,,E,].[E,,,E,,]!f! .[A,,,A,,] A,/x/A,/x/A,/ x/ | %204
 .A, .A,, z[K:treble] .[Ac] [AB]2 z .[^GB] | [^GA]2 z .[FA] [FG]2 z .[EG] | %206
 [EF]2 z[K:bass] .[DF] [DE-]2 E[I:staff -1]E | %207
[I:staff +1] D2-"^cresc."!<(! D/C/D/B,/[K:treble] E2- E/D/E/C/ | %208
 F2- F/E/F/E/ F/E/D/F/[K:bass] .E.E,!<)! |!f! x2 A,/B,/C/B,/ A,/B,/C/B,/ A,/B,/C/B,/ | %210
 C/D/E/D/ C/D/E/D/ C/D/E/D/ C/D/E/D/ | %211
 z/ B,,/C,/B,,/ A,,/B,,/C,/B,,/ A,,/B,,/C,/B,,/ A,,/B,,/C,/B,,/ | %212
[I:staff -1] E/[I:staff +1][K:treble]F/G/F/[I:staff -1] [EA]/[I:staff +1]F/G/F/[I:staff -1] [EA]/[I:staff +1]F/G/F/[I:staff -1] [EA]/[I:staff +1]F/G/F/ | %213
[K:bass]!ff! z .[A,,A,] !>![F,,F,]2"^sempre" z .[B,,,B,,] !>![G,,G,]2 | %214
 z .[A,,A,] !>![F,,F,]2 z .[B,,,B,,] !>![G,,G,]2 | %215
 z .[A,,A,] !>![F,,F,]2 z .[B,,,B,,] !>![G,,G,]2 | %216
 z .[A,,A,] !>![F,,F,]2 z .[B,,,B,,] !>![G,,G,]2 | %217
 z [A,,A,] [D,,D,]2 z/ [^G,,^G,]/[A,,A,]/[G,,G,]/ [A,,A,]2 | %218
 z/ [^G,,,^G,,]/[A,,,A,,]/[G,,,G,,]/ [A,,,A,,]2 z/ [G,,^G,]/[A,,A,]/[G,,G,]/ [A,,A,]2 | %219
 z/ [^G,,,^G,,]/[A,,,A,,]/[G,,,G,,]/ [A,,,A,,]2 z/ [G,,^G,]/[A,,A,]/[G,,G,]/ [A,,A,]2 | %220
 z/ [^G,,,^G,,]/[A,,,A,,]/[G,,,G,,]/ [A,,,A,,]2 z .[A,,A,] !>![A,,,A,,]2 | %221
 z .[G,,G,] !>![G,,,G,,]2 z .[F,,F,] !>![F,,,F,,]2 | %222
 z .[E,,E,] !>![E,,,E,,]2 z .[D,,D,] !>![D,,,D,,]2 | %223
!ped! z2[K:treble] !>!F/A/F/D/ z2 !>!D/F/D/A,/ |[K:bass] z2 A,/D/A,/F,/ z2 F,/A,/F,/D,/!ped-up! | %225
!fff! [D,D]/[E,E]/[F,F]/[E,E]/ [D,D]/[E,E]/[F,F]/[E,E]/ [D,D]/[E,E]/[F,F]/[E,E]/ [D,D]/[E,E]/[F,F]/[E,E]/ | %226
 [D,D] z z2 z .D, !>![B,,B,]/[A,,A,]/[B,,B,]/[F,,F,]/ | %227
 [G,,G,]/[F,,F,]/[G,,G,]/[E,,E,]/ [A,,A,]/[G,,G,]/[A,,A,]/[E,,E,]/ [F,,F,]/[E,,E,]/[F,,F,]/[D,,D,]/ [G,,G,]/[F,,F,]/[G,,G,]/[D,,D,]/ | %228
 [E,,E,]/[D,,D,]/[E,,E,]/[C,,C,]/ [F,,F,]/[E,,E,]/[F,,F,]/[C,,C,]/ [D,,D,]/[C,,C,]/[D,,D,]/[B,,,B,,]/ [E,,E,]/[D,,D,]/[E,,E,]/[B,,,B,,]/ | %229
 [C,,C,]/[B,,,B,,]/[C,,C,]/[A,,,A,,]/ !>![D,,D,]2- [D,,D,]/[E,,E,]/[D,,D,]/[E,,E,]/ [C,,C,]2 | %230
 z/ F,/G,/A,/ B,/A,/B,/F,/ G,/F,/G,/E,/ A,/G,/A,/E,/ | %231
 F,/E,/F,/D,/ G,/F,/G,/D,/ E,/D,/E,/C,/ F,/E,/F,/C,/ | %232
 D,/C,/D,/B,,/ E,/D,/E,/B,,/ C,/B,,/C,/A,,/!ped! D,2 | %233
 z4!ped-up! z/ [D,,,D,,]/[F,,,F,,]/[D,,,D,,]/ [A,,,A,,]/[F,,,F,,]/[F,,F,]/[A,,,A,,]/ | %234
 [F,,F,]2!ped! A,/D/A,/F,/!ped-up! D,/!ped! !>!D/A,/F,/ D,/A,/F,/D,/!ped-up! | %235
 A,,/ [A,,,A,,]/[D,,D,]/[A,,,A,,]/ [F,,F,]/[D,,D,]/[A,,A,]/[F,,F,]/ z/!ped! D/A,/F,/ D,/A,/F,/D,/!ped-up! | %236
 A,,/ !>![D,D]/[A,,A,]/[D,D]/ [F,,F,]/[A,,A,]/[D,,D,]/[F,,F,]/ z/!ped! A,/F,/D,/ A,,/D,/A,,/F,,/!ped-up! | %237
 D,,/ [A,,A,]/[F,,F,]/[A,,A,]/ [D,,D,]/[F,,F,]/[A,,,A,,]/[D,,D,]/ [F,,,F,,]/F,,/D,,/F,,/ A,,,/D,,/F,,,/A,,,/ | %238
 D,,,/E,,,/F,,,/E,,,/ D,,,/F,,,/E,,,/G,,,/ F,,,/G,,,/A,,,/G,,,/ F,,,/A,,,/G,,,/B,,,/ | %239
 [A,,,,A,,,]/[B,,,,B,,,]/[C,,,C,,]/[B,,,,B,,,]/ [A,,,,A,,,]/[C,,,C,,]/[B,,,,B,,,]/[D,,,D,,]/ [C,,,C,,]/[D,,,D,,]/[E,,,E,,]/[D,,,D,,]/ [C,,,C,,]/[E,,,E,,]/[D,,,D,,]/[F,,,F,,]/ | %240
 E,/F,/G,/F,/ E,/G,/F,/A,/ [G,,,G,,]/[A,,,A,,]/[B,,,B,,]/[A,,,A,,]/ [G,,,G,,]/[B,,,B,,]/[A,,,A,,]/[G,,,G,,]/ | %241
 [D,,D,]/[C,,C,]/[D,,D,]/[C,,C,]/ [D,,D,]/[C,,C,]/[D,,D,]/[C,,C,]/ [D,,D,] z z2 | %242
 [D,,D,]/[E,,E,]/[F,,F,]/[E,,E,]/ [D,,D,]/[E,,E,]/[F,,F,]/[E,,E,]/ [D,,D,] F/E/ F/E/F/E/ | %243
!ped! F .[D,D] !^![D,,D,]2!ped-up! z .[D,,D,] !fermata![D,,,D,,]2 |] %244
V:4
 x8 | x8 | x4 [D,,D,] x x2 | x8 | %4
 z/ [F,,,F,,]/[A,,,A,,]/[D,,,D,,]/ [F,,,F,,]/[A,,,,A,,,]/[D,,,D,,]/F,,,/ [A,,,,A,,,]4- | %5
 [A,,,,A,,,]8- | [A,,,,A,,,A,,]8- | [A,,,,A,,,A,,]8 | A,/E,/A,, x2 x4 | x8 | x8 | !>![F,,,F,,]8- | %12
 [F,,,F,,]8 | !>![F,,,F,,]8 | x4 x2[K:treble] x x/ x/4[K:bass] [D,,,D,,]/4- | [D,,,D,,]4 x2 D,2 | %16
 G,4- G,G, F,2 | E,2 A,,2 D,2[K:treble] D2- | D2 C2 B,4 |[K:bass] A,2 F,2 G,4 | F,4 E,4 | %21
 D,2 C,2 B,,2 E,2 | x8 | x8 | z2 B,4 ^A,2 | B,2 z"^poco cresc."!<(! =A, B,D^G,B,!<)! | %26
 A,CF,A, =G,B,E,G, | F,A,D,F, E,G,C,E, | D,F,B,,D, C,E,A,,C, | B,,D,C,E, D,E,F,D, | %30
 G,E, z A,, [D,F,]!>!D,, z2[K:treble] | x8 | x8 | x8 |[K:bass] x8 | x8 | x8 | x8 | x8 | x8 | x8 | %41
 x8 | x8 | x8 | x8 | x8 | x6 F,2 | F,2 ^E,2 F,4 | =E,4 D,2 F,2 | x8 | x8 | x8 | x8 | x8 | x8 | x8 | %56
 x8 | x8 | x6[K:treble] x2 | x8 | x8 | x8 | x8 | x2[K:bass] x6 | x8 | x8 | x8 | x8 | %68
 x2 z F, G,B,E,G, | F,D,G,B,, D,A,,D,D,, | x8 | z2 z G,, [=C,,=C,]2 [B,,,B,,]2 | [=C,,=C,]2 x2 x4 | %73
 z2 z A,, [D,,D,]2 [C,,C,]2 | [D,,D,]2 x2[K:treble] x4 | x3[K:bass] x5 | x3[K:treble] x5 | %77
 x3[K:bass] x5 | x8 | x8 | x8 | x8 | x8 | x8 | x8 | x8 | x2 F,2!f! G,2 A,2 | B,2!f! G,2 A,2 A,,2 | %88
 D,2 D,4 C,2- | C,2 B,,4 A,,2- | A,,2 G,,4 F,,2- | F,,2 E,,2 F,,4 | G,,2 A,,2 [B,,D,]2 [F,,,F,,]2 | %93
 [G,,,G,,]2 [A,,,A,,]2 [B,,,B,,]2 z2 | x8 | x4{/^D,,,^D,,} ^D,4 | x4{/^G,,,^G,,} ^G,4 | %97
 A,,2 x2 x4[K:treble] |[K:bass] D,2 =C,B,,/A,,/ z2 [B,,,B,,]2 | [E,,,E,,]6 !arpeggio![=D,,,=D,,]2 | %100
 [=C,,,=C,,][C,,=C,][B,,,B,,][A,,,A,,] [E,,E,]4- | [E,,E,]6 x x/ [C,,C,]/ | %102
[K:treble] ^C4[K:bass] !>![=F,,,=F,,]4 | [G,,,G,,]4 x4 | [A,,,A,,]8 | D,,4 E,3 E, | D,8 || x8 | %108
 x8 | x8 | x8 | x8 | x8 | x8 | x3[K:treble] x5 | x8 | x8 |[K:bass] x8 | x2[K:treble] x6 | %119
 x2[K:bass] x6 | DD, z E, F,G,A,A,, | D, z z2 z2 x2 | x8 | x8 | x2 F,2 G,F,E,A,, | D,2 x2 x4 | %126
 x4 [A,,,A,,]/B,,,/C,,/B,,,/ [A,,,A,,]/B,,,/C,,/B,,,/ | %127
 [A,,,A,,]/B,,,/C,,/B,,,/ [A,,,A,,]/B,,,/C,,/B,,,/ [A,,,A,,] z z2 | %128
 z2 F,/E,/F,/C,/ D,/C,/D,/B,,/ E,/D,/C,/B,,/ | %129
 C,/B,,/C,/A,,/ D,/C,/D,/A,,/ B,,/A,,/B,,/^G,,/ C,/B,,/C,/G,,/ | %130
 A,,/^G,,/A,,/F,,/ B,,/A,,/B,,/F,,/ ^G,,/F,,/G,,/E,,/ A,,2 | A,,/B,,/A,,/B,,/ ^G,,2 A,,2 x2 | %132
 D,B,, x2 x4 | x8 | x8 | x8 | x8 | z D,/C,,/ D,/C,,/D,/C,,/ D,[D,,,D,,] x2 | x8 | x8 | x8 | x8 | %142
 x8 | x8 | x8 | x8 | x8 | x8 | A,2 E,/A,/E,/C,/ z2 C,/E,/C,/A,,/ | x2 G,,2- G,,2 A,,2- | %150
 A,,2 B,,2 C, D,2 C, | D,F, x2 x4 | %152
 [D,,D,]/E,,/F,,/E,,/ D,,/E,,/F,,/E,,/ D,,/E,,/F,,/E,,/ D,,/E,,/F,,/E,,/ | %153
 [D,,D,]2 x2 x2 B,/A,/B,/F,/ | G,/F,/G,/E,/ A,/G,/A,/E,/ F,/E,/F,/D,/ G,/F,/G,/D,/ | %155
 E,/D,/E,/C,/ F,/E,/F,/C,/ D,/C,/D,/B,,/ E,/D,/E,/B,,/ | C,/B,,/C,/A,,/ D,2- D,/E,/D,/E,/ C,2 | %157
 x8 | x8 | [B,,,B,,]/C,,/D,,/C,,/ B,,,/C,,/D,,/C,,/ B,,,/C,,/D,,/C,,/ B,,,/C,,/D,,/C,,/ | %160
 [B,,,B,,]2 z2 z4 | x8 | x8 | x8 | x8 | x2[K:treble] x6 | x2 z2 E2 z2 | F2 z2 G2 z2 | %168
 ^G2- G/c/B/c/ x4 | x4[K:bass] x4 | x8 | x4 x x/ ^E,,/x/E,,/x/E,,/ | x8 | x8 | x4 B,,2 A,,2 | %175
 B,,2 C,2 x[K:treble] CCC | x[K:bass] x/ ^E,,/x/E,,/x/E,,/ x4 | %177
 z [F,,,F,,]/^E,,,/ [F,,,F,,]/E,,,/[F,,,F,,]/E,,,/ [F,,,F,,] x x2 | x8 | x8 | x8 | x8 | x8 | %183
 x4 [F,,,F,,]/x/[A,,,A,,]/ x/ [F,,,F,,]/x/[A,,,A,,]/ x/ | %184
 [F,,,F,,]/x/[A,,,A,,]/ x/ [F,,,F,,]/x/[A,,,A,,]/ x/ .[F,,,F,,] x x2 | x x x2 C,2 z2 | %186
 [C,,,C,,]/x/[E,,,E,,]/ x/ [C,,,C,,]/x/[E,,,E,,]/ x/ [C,,,C,,]/x/[E,,,E,,]/ z/ [C,,,C,,]/x/[E,,,E,,]/ x/ | %187
 x8 | x7[K:treble] x | x7[K:bass] x | x6[K:treble] x2 | x2[K:bass] x6 | x8 | x8 | x8 | x8 | %196
 E,/F,/^G,/F,/ [E,G,]/ z/ z [E,G,]/ z/ z [E,G,]/ z/ z | x8 | x8 | x8 | x8 | x6 F,2 | ^G,A, E,2 x4 | %203
 x4 x x/ ^G,/x/G,/x/G,/ | x3[K:treble] x5 | x8 | x6[K:bass] C/B,/C/A,/ | x4[K:treble] x4 | %208
 x6[K:bass] x2 | A,,,/B,,/C,,/B,,/ A,,,/B,,/C,,/B,,/ A,,,/B,,/C,,/B,,/ A,,,/B,,/C,,/B,,/ | %210
 A,,2 z2 z4 | %211
 [A,,,,A,,,]/B,,,/C,,,/B,,,/ A,,,,/B,,,/C,,,/B,,,/ A,,,,/B,,,/C,,,/B,,,/ A,,,,/B,,,/C,,,/B,,,/ | %212
 [A,,,,A,,,]/[K:treble] x2 x/ x x4 |[K:bass] x8 | x8 | x8 | x8 | x8 | x8 | x8 | x8 | x8 | x8 | %223
 x2[K:treble] x6 |[K:bass] x8 | %225
 [D,,,D,,]/[E,,,E,,]/[F,,,F,,]/[E,,,E,,]/ [D,,,D,,]/[E,,,E,,]/[F,,,F,,]/[E,,,E,,]/ [D,,,D,,]/[E,,,E,,]/[F,,,F,,]/[E,,,E,,]/ [D,,,D,,]/[E,,,E,,]/[F,,,F,,]/[E,,,E,,]/ | %226
 [D,,,D,,] x x2 x4 | x8 | x8 | x8 | [D,,D,]2 z .D, !>!D,2 z .C, | !>!C,2 z .B,, !>!B,,2 z .A,, | %232
 A,,2 z G,, G,,2 F,,2 | x8 | x8 | x4 [D,D] z z2 | x4 [A,,,A,,] z z2 | x8 | x8 | x8 | %240
 [E,,,E,,]/[F,,,F,,]/[G,,,G,,]/[F,,,F,,]/ [E,,,E,,]/[G,,,G,,]/[F,,,F,,]/[A,,,A,,]/ x4 | x8 | x8 | %243
 x8 |] %244
V:5
 x8 | x8 | x5[K:bass] x3 | x4[K:treble] x4 | x8 | x8 | x8 | x8 | x8 | x8 | x8 | x8 | x8 | x8 | x8 | %15
 x8 | x8 | x8 | x8 | x8 | x8 | x8 | x4 B2 x2 | A2 B4 x2 | x8 | x8 | x8 | x8 | x8 | x8 | x8 | x8 | %32
 x8 | x8 | x8 | x8 | x8 | x8 | x8 | x8 | x8 | x8 | x8 | x8 | x8 | x8 | x8 | x8 | x8 | x8 | x8 | %51
 x8 | x8 | x8 | x8 | x8 | x8 | x8 | x8 | x8 | x8 | x8 | x8 | x6 ED | x8 | x8 | x4[K:bass] x4 | x8 | %68
 x2[K:treble] x6 | x8 | x8 | x8 | x8 | x8 | x8 | x2 F2 G2 D2 | x8 | x2 G2 =c2 x2 | x4 =c4 | x8 | %80
 x8 | x2 E4 ^D2 | x8 | x8 | A2 x2 x4 | x8 | x8 | x8 | x8 | x8 | x8 | x8 | x8 | x8 | x8 | x8 | x8 | %97
 =C2 x2 x4 | x8 | B,4 x4 | x8 | x6 =F2 | x2 z e e=f/e/ da/A/ | x8 | x4 G2 x2 | x8 | x8 || x8 | x8 | %109
 x8 | x8 | x8 | x8 | x8 | x8 | x8 | x8 | x8 | x8 | x8 | x8 | x8 | x8 | x8 | x8 | x8 | x8 | x8 | %128
 x8 | x8 | x8 | x8 | x2 E2 x4 | x8 | x8 | x8 | x8 | x8 | x8 | x8 | x8 | x8 | x8 | x8 | x8 | x8 | %146
 x8 | x8 | x8 | x8 | x8 | x8 | x8 | x8 | x8 | x8 | x8 | x8 | x8 | x8 | x8 | x8 | x8 | x8 | x8 | %165
 x8 | x8 | x8 | x8 | x8 | x8 | x8 | x8 | x8 | x8 | x8 | x8 | x8 | x8 | x8 | x8 | x8 | x8 | x8 | %184
 x8 | x8 | x8 | x8 | x8 | x8 | x8 | x8 | x8 | x8 | x8 | x8 | x8 | x8 | x8 | x8 | x8 | x8 | x8 | %203
 x8 | x8 | x8 | x8 | x8 | x8 | x8 | x8 | x8 | x8 | x8 | x8 | x8 | x8 | x8 | x8 | x8 | x8 | x8 | %222
 x8 | x8 | x8 | x8 | x8 | x8 | x8 | x8 | x8 | x8 | x8 | x8 | x8 | x8 | x6[K:bass] x2 | x8 | x8 | %239
 x8 |[K:treble] x8 | x8 | x8 | x5[K:bass] x3 |] %244
V:6
 x8 | x8 | x8 | x8 | x8 | x8 | x8 | x8 | x8 | x8 | x8 | x8 | x8 | x8 | %14
 x6[K:treble] x7/4[K:bass] x/4 | x8 | x8 | x6[K:treble] x2 | x8 |[K:bass] x8 | x8 | x8 | x8 | x8 | %24
 x8 | x8 | x8 | x8 | x8 | x8 | x7[K:treble] x | x8 | x8 | x8 |[K:bass] x8 | x8 | x8 | x8 | x8 | %39
 x8 | x8 | x8 | x8 | x8 | x8 | x8 | x8 | x8 | x8 | x8 | x8 | x8 | x8 | x8 | x8 | x8 | x8 | x8 | %58
 x6[K:treble] x2 | x8 | x8 | x8 | x8 | x2[K:bass] x6 | x8 | x8 | x8 | x8 | x8 | x8 | x8 | x8 | x8 | %73
 x8 | x3[K:treble] x5 | x3[K:bass] x5 | x3[K:treble] x5 | x3[K:bass] x5 | x8 | x8 | x8 | x8 | x8 | %83
 x8 | x8 | x8 | x8 | x8 | x8 | x8 | x8 | x8 | D,2 C,2 x4 | x8 | x8 | x8 | x8 | x6[K:treble] x2 | %98
[K:bass] x4 ^F,4- | x8 | x8 | x8 |[K:treble] x4[K:bass] x4 | x8 | x8 | x8 | !fermata![D,,,D,,]8 || %107
 x8 | x8 | x8 | x8 | x8 | x8 | x8 | x3[K:treble] x5 | x8 | x8 |[K:bass] x8 | x2[K:treble] x6 | %119
 x2[K:bass] x6 | x8 | x8 | x8 | x8 | x8 | x8 | x8 | x8 | x8 | x8 | x8 | x8 | x8 | x8 | x8 | x8 | %136
 x8 | x8 | x8 | x8 | x8 | x8 | x8 | x8 | x8 | x8 | x8 | x8 | x8 | x8 | x8 | x8 | x8 | x8 | x8 | %155
 x8 | x8 | x8 | x8 | x8 | x8 | x8 | x8 | x8 | x8 | x2[K:treble] x6 | x8 | x8 | x8 | x4[K:bass] x4 | %170
 x8 | x8 | x8 | x8 | x8 | x5[K:treble] x3 | x[K:bass] x7 | x8 | x8 | x8 | x8 | x8 | x8 | x8 | x8 | %185
 x8 | x8 | x8 | x7[K:treble] x | x7[K:bass] x | x6[K:treble] x2 | x2[K:bass] x6 | x8 | x8 | x8 | %195
 x8 | x8 | x8 | x8 | x8 | x8 | x8 | x8 | x8 | x3[K:treble] x5 | x8 | x3[K:bass] x5 | %207
 x4[K:treble] x4 | x6[K:bass] x2 | x8 | x8 | x8 | x/[K:treble] x15/2 |[K:bass] x8 | x8 | x8 | x8 | %217
 x8 | x8 | x8 | x8 | x8 | x8 | x2[K:treble] x6 |[K:bass] x8 | x8 | x8 | x8 | x8 | x8 | x8 | x8 | %232
 x8 | x8 | x8 | x8 | x8 | x8 | x8 | x8 | x8 | x8 | x8 | x8 |] %244

